images/java.svg

<?xml version="1.0" encoding="UTF-8" standalone="no"?>
<svg width="27px" height="35px" viewBox="0 0 27 35" version="1.1" xmlns="http://www.w3.org/2000/svg" xmlns:xlink="http://www.w3.org/1999/xlink">
    <!-- Generator: Sketch 3.8.3 (29802) - http://www.bohemiancoding.com/sketch -->
    <title>Layer_1</title>
    <desc>Created with Sketch.</desc>
    <defs></defs>
    <g id="Page-1" stroke="none" stroke-width="1" fill="none" fill-rule="evenodd">
        <g id="Home" transform="translate(-575.000000, -1555.000000)" fill="#616572">
            <g id="Group-12" transform="translate(152.000000, 1337.000000)">
                <g id="java" transform="translate(423.000000, 218.000000)">
                    <g id="Layer_1">
                        <g id="XMLID_7_">
                            <path d="M12.9503855,6.48509836 C11.3206883,7.62254098 9.47359031,8.91180328 8.48395374,11.0447377 C6.76498348,14.7657541 12.0014537,18.8248361 12.2252148,18.9958197 C12.2772522,19.0356393 12.3394659,19.055377 12.4015639,19.055377 C12.467478,19.055377 12.5335077,19.033 12.5871641,18.9884754 C12.6911233,18.9021803 12.7206112,18.7556393 12.6581663,18.6362951 C12.6392015,18.6000328 10.759609,14.9770164 10.8294548,12.3777213 C10.8542015,11.472541 12.1308535,10.4456066 13.4824394,9.35831148 C14.7203524,8.36247541 16.1235132,7.2337541 16.9445485,5.91339344 C18.7468943,3.00701639 16.7436839,0.149180328 16.7232159,0.120721311 C16.6436564,0.00986885246 16.4967952,-0.0304098361 16.3712115,0.0243278689 C16.2457434,0.0791803279 16.1762445,0.213901639 16.2049229,0.346901639 C16.2089703,0.365721311 16.5985573,2.25560656 15.5145595,4.20263934 C15.0678469,5.00718033 14.086652,5.69214754 12.9503855,6.48509836 L12.9503855,6.48509836 Z" id="XMLID_8_"></path>
                            <path d="M19.8164372,7.76678689 C19.9313822,7.68083607 19.9651487,7.52408197 19.8955341,7.399 C19.8259196,7.27391803 19.6743172,7.21872131 19.5397137,7.26944262 C19.2628744,7.37386885 12.7601597,9.86116393 12.7601597,12.8666885 C12.7601597,14.9383443 13.6519659,16.0328689 14.3031278,16.8321311 C14.5585738,17.1455246 14.7790969,17.4162295 14.8517181,17.6473443 C15.056283,18.313377 14.571641,19.5171475 14.3678855,19.9247541 C14.309141,20.0420328 14.337935,20.1839836 14.4378469,20.2695902 C14.4918502,20.3158361 14.5592676,20.3392459 14.6268007,20.3392459 C14.6842731,20.3392459 14.7419769,20.3222623 14.7918172,20.2878361 C14.9036399,20.2106066 17.5243612,18.3719016 17.0542896,16.1565738 C16.8792126,15.314623 16.4622192,14.6993115 16.0942566,14.1564098 C15.5242731,13.315377 15.1125991,12.7077541 15.7371641,11.5855738 C16.4691575,10.276918 19.7830176,7.79168852 19.8164372,7.76678689 L19.8164372,7.76678689 Z" id="XMLID_9_"></path>
                            <path d="M2.88981278,20.3870984 C2.778337,20.7181639 2.83095264,21.0469344 3.04187775,21.3376066 C3.74681167,22.3086557 6.24368392,22.8435246 10.072946,22.8435246 L10.0734086,22.8435246 C10.5922797,22.8435246 11.1400606,22.8334262 11.7011399,22.813459 C17.8234031,22.5958852 20.0942015,20.7032459 20.1878689,20.6228033 C20.289978,20.5351311 20.3172687,20.3890492 20.253783,20.2708525 C20.1902974,20.1527705 20.0533811,20.0934426 19.9225936,20.1291311 C17.7665088,20.7133443 13.7401982,20.9207049 10.947522,20.9207049 C7.82261564,20.9207049 6.23119493,20.6973934 5.84160793,20.5324918 C6.04154736,20.2600656 7.27460352,19.773623 8.80253855,19.475377 C8.94859031,19.446918 9.04896476,19.3131148 9.03450991,19.1661148 C9.02005507,19.0191148 8.89562775,18.907 8.74680066,18.907 C7.85106278,18.9071148 3.35930617,18.9784918 2.88981278,20.3870984 L2.88981278,20.3870984 Z" id="XMLID_10_"></path>
                            <path d="M23.3761454,18.4378852 C22.11337,18.4378852 20.9159306,19.0658197 20.8655121,19.0925574 C20.748717,19.1546393 20.6895099,19.2875246 20.7215419,19.4151311 C20.7536894,19.542623 20.8692126,19.6322459 21.0017346,19.6323607 C21.0285628,19.6324754 23.6953084,19.6540492 23.9368778,21.1660492 C24.1508095,22.470459 21.4136399,24.584 20.340859,25.2883607 C20.224989,25.3644426 20.1800055,25.5115574 20.2337775,25.6385902 C20.2794548,25.7468033 20.3857269,25.8145082 20.5002093,25.8145082 C20.5202148,25.8145082 20.5404515,25.8124426 20.5605727,25.808082 C20.8152093,25.7541475 26.7882985,24.4480164 26.1567952,20.9967869 C25.7714868,18.8817541 24.4319273,18.4378852 23.3761454,18.4378852 L23.3761454,18.4378852 Z" id="XMLID_11_"></path>
                            <path d="M19.2798733,24.8660656 C19.3006883,24.7554426 19.2543172,24.6429836 19.1615749,24.5784918 L17.7293888,23.583 C17.659543,23.534459 17.5713106,23.5191967 17.4893227,23.5407705 C17.4744053,23.5446721 15.976652,23.9352951 13.8021806,24.1749016 C12.9391685,24.2709508 11.9725441,24.3216721 11.0066134,24.3216721 C8.83272026,24.3216721 7.41128855,24.0681803 7.20429515,23.8822787 C7.17688877,23.8300656 7.18556167,23.8063115 7.1904185,23.7931148 C7.2280011,23.6892623 7.42955947,23.5659016 7.55953744,23.5171311 C7.70304515,23.464459 7.78040749,23.3097705 7.73577093,23.1644918 C7.69125,23.0192131 7.54034141,22.9336066 7.39139868,22.9691803 C5.95470264,23.3132131 5.25219714,23.794377 5.30330947,24.3991311 C5.3940859,25.4712787 7.89685573,26.0216393 10.0126982,26.1672623 C10.3169438,26.187918 10.6460518,26.1984754 10.9905396,26.1984754 L10.9911178,26.1984754 C14.5094273,26.1984754 19.0198018,25.1030328 19.0649009,25.0919016 C19.174989,25.0649344 19.2589427,24.9766885 19.2798733,24.8660656 L19.2798733,24.8660656 Z" id="XMLID_12_"></path>
                            <path d="M8.48221916,27.167459 C8.59068833,27.0973443 8.63879405,26.9643443 8.60028634,26.8417869 C8.56189427,26.7192295 8.44637115,26.6387869 8.31662445,26.6403934 C8.1240859,26.6454426 6.43263767,26.7211803 6.31422357,27.7898852 C6.27837555,28.1092459 6.37053965,28.4009508 6.58828744,28.6569672 C7.19562225,29.3711967 8.8349174,29.7956721 11.5991465,29.9548361 C11.9261729,29.9742295 12.2582874,29.9839836 12.5865859,29.9839836 C16.100848,29.9839836 18.4676267,28.8920984 18.5667291,28.845623 C18.6628249,28.8005246 18.7261949,28.7068852 18.7318612,28.601541 C18.7375275,28.4963115 18.684565,28.3963607 18.5939042,28.3413934 L16.7839262,27.244918 C16.7211344,27.2069344 16.6459692,27.1943115 16.5742731,27.2088852 C16.5628249,27.2112951 15.4136068,27.4478033 13.6792566,27.6815574 C13.3510738,27.7257377 12.9400936,27.7482295 12.45788,27.7482295 C10.72538,27.7482295 8.79837555,27.4673115 8.42879405,27.2834754 C8.42347467,27.2489344 8.43029736,27.2053279 8.48221916,27.167459 L8.48221916,27.167459 Z" id="XMLID_13_"></path>
                            <path d="M10.9487941,33.2807541 C18.9984086,33.2739836 23.3187885,31.8534426 24.1510407,30.9595082 C24.4456883,30.6431311 24.477489,30.3437377 24.4523954,30.1481967 C24.3905286,29.666918 23.9489042,29.3723443 23.898717,29.3403279 C23.7778744,29.2632131 23.6157489,29.2834098 23.5215033,29.3912787 C23.427489,29.4992623 23.4252919,29.6568197 23.5196531,29.7645738 C23.5704185,29.8294098 23.5997907,29.9378525 23.4513106,30.0853115 C23.1186178,30.3936557 19.7627808,31.3297049 14.1753469,31.6108525 C13.4099339,31.6504426 12.6071696,31.6704098 11.7893722,31.6705246 C6.78660793,31.6705246 3.12536894,30.9906066 2.64477423,30.5942459 C2.83014317,30.3301967 4.12506608,29.9081311 5.50232379,29.6695574 C5.65751101,29.6427049 5.76239537,29.497541 5.73834251,29.343082 C5.71428965,29.188623 5.57078194,29.0822459 5.41397577,29.1025574 C5.37512115,29.1077213 5.24340859,29.1157541 5.09064978,29.1249344 C2.81823238,29.2626393 0.19219163,29.5696066 0.0551596916,30.731377 C0.0135297357,31.0855082 0.119570485,31.4068197 0.370390969,31.6865902 C0.984085903,32.3708689 2.74815529,33.2806393 10.9484471,33.2806393 C10.9486784,33.2807541 10.9486784,33.2807541 10.9487941,33.2807541 L10.9487941,33.2807541 Z" id="XMLID_14_"></path>
                            <path d="M25.7321696,31.2113934 C25.6183811,31.1591803 25.4840088,31.1855738 25.3990143,31.276459 C25.3871035,31.289082 24.1769438,32.5449508 20.5381388,33.2823607 C19.1450385,33.559377 16.5300991,33.6998361 12.7659416,33.6998361 C8.99473018,33.6998361 5.40634361,33.5526066 5.37049559,33.5511148 C5.22062775,33.5438852 5.09238436,33.6519836 5.07203194,33.7984098 C5.05156388,33.9448361 5.14661894,34.0826557 5.29139868,34.1168525 C5.32875,34.1256885 9.08943833,35 14.2314317,35 C16.6976597,35 19.097511,34.8011311 21.3644934,34.4089016 C25.5914372,33.6735574 25.8873568,31.5936393 25.89788,31.5055082 C25.9125661,31.3822623 25.8457269,31.2636066 25.7321696,31.2113934 L25.7321696,31.2113934 Z" id="XMLID_15_"></path>
                        </g>
                    </g>
                </g>
            </g>
        </g>
    </g>
</svg>

<svg width="27" height="35" viewBox="0 0 27 35" xmlns="http://www.w3.org/2000/svg"><title>Layer_1</title><g fill="#616572" fill-rule="evenodd"><path d="M12.95 6.485c-1.63 1.138-3.476 2.427-4.466 4.56-1.719 3.72 3.517 7.78 3.741 7.95a.29.29 0 0 0 .362-.007.285.285 0 0 0 .071-.352c-.019-.036-1.898-3.659-1.829-6.258.025-.905 1.302-1.932 2.653-3.02 1.238-.996 2.642-2.124 3.463-3.445 1.802-2.906-.201-5.764-.222-5.792a.29.29 0 0 0-.352-.097.286.286 0 0 0-.166.323c.004.019.394 1.909-.69 3.856-.447.804-1.428 1.49-2.565 2.282z"/><path d="M19.816 7.767a.285.285 0 0 0 .08-.368.29.29 0 0 0-.356-.13c-.277.105-6.78 2.592-6.78 5.598 0 2.071.892 3.166 1.543 3.965.256.314.476.584.549.815.204.666-.28 1.87-.484 2.278a.285.285 0 0 0 .259.414.29.29 0 0 0 .165-.051c.112-.077 2.732-1.916 2.262-4.131-.175-.842-.592-1.458-.96-2-.57-.842-.981-1.45-.357-2.571.732-1.31 4.046-3.794 4.08-3.82z"/><path d="M2.89 20.387c-.112.331-.059.66.152.95.705.972 3.202 1.507 7.03 1.507h.001c.52 0 1.067-.01 1.628-.03 6.122-.218 8.393-2.11 8.487-2.191a.285.285 0 0 0 .066-.352.29.29 0 0 0-.331-.142c-2.156.584-6.183.792-8.975.792-3.125 0-4.717-.224-5.106-.389.2-.272 1.433-.758 2.96-1.057a.287.287 0 0 0-.055-.568c-.896 0-5.388.071-5.857 1.48zM23.376 18.438c-1.263 0-2.46.628-2.51.655a.286.286 0 0 0 .136.54c.027 0 2.693.021 2.935 1.533.214 1.304-2.523 3.418-3.596 4.122a.286.286 0 0 0 .16.527c.02 0 .04-.003.06-.007.254-.054 6.227-1.36 5.596-4.811-.386-2.115-1.725-2.56-2.78-2.56zM19.28 24.866a.286.286 0 0 0-.118-.288l-1.433-.995a.292.292 0 0 0-.24-.042c-.015.004-1.512.394-3.687.634-.863.096-1.83.147-2.795.147-2.174 0-3.596-.254-3.803-.44-.027-.052-.018-.076-.014-.089.038-.104.24-.227.37-.276a.286.286 0 0 0-.169-.548c-1.436.344-2.139.825-2.088 1.43.091 1.072 2.594 1.623 4.71 1.768.304.02.633.031.978.031 3.518 0 8.029-1.095 8.074-1.106a.288.288 0 0 0 .215-.226zM8.482 27.167a.286.286 0 0 0 .118-.325.29.29 0 0 0-.283-.202c-.193.005-1.884.081-2.003 1.15-.036.32.057.611.274.867.608.714 2.247 1.139 5.011 1.298.327.02.66.029.988.029 3.514 0 5.88-1.092 5.98-1.138a.287.287 0 0 0 .027-.505l-1.81-1.096a.293.293 0 0 0-.21-.036c-.011.002-1.16.239-2.895.473-.328.044-.739.066-1.221.066-1.733 0-3.66-.28-4.03-.465-.005-.034.002-.078.054-.116z"/><path d="M10.949 33.28c8.05-.006 12.37-1.427 13.202-2.32.295-.317.326-.616.301-.812-.061-.481-.503-.776-.553-.808a.293.293 0 0 0-.377.051.282.282 0 0 0-.002.374c.05.064.08.173-.069.32-.332.309-3.688 1.245-9.276 1.526-.765.04-1.568.06-2.386.06-5.002 0-8.664-.68-9.144-1.077.185-.264 1.48-.686 2.857-.924a.287.287 0 0 0-.088-.567c-.039.005-.17.013-.323.022-2.273.138-4.899.445-5.036 1.606-.041.355.065.676.315.956.614.684 2.378 1.594 10.578 1.594z"/><path d="M25.732 31.211a.29.29 0 0 0-.333.065c-.012.013-1.222 1.269-4.86 2.006-1.394.277-4.009.418-7.773.418-3.771 0-7.36-.147-7.396-.149a.287.287 0 0 0-.079.566c.038.009 3.798.883 8.94.883 2.467 0 4.867-.199 7.133-.591 4.227-.735 4.523-2.815 4.534-2.903a.287.287 0 0 0-.166-.295z"/></g></svg>
